X: 12159
T: Exhale
R: jig
M: 6/8
K: Dmajor
|:DFA d2D|c2D BAF|E3 GAB|ABd ecA|
d2f Ada|g2f ecA|BAB def|edc d3:|
a2A g2A|fef dc=c|Bdg bBa-|agf efg|
a2A g2A|fef dcA|BAB def|edc d3:|

